X: 5628
T: Sedi Donka
R: SQQ.SQQ.QQSQQ
O: Bulgaria
B:
D:
Z: John Chambers <jc@eddie.mit.edu> http://eddie.mit.edu/~jc/music/
M: 7.7.11/16
L: 1/16
P: ABABCDCD...
K: C
P: A
|: "C"eGc ~e2 dB | "G"dGB ~d2 cB | "G"AB GD GAB "C"~c2 cG \
|  "C"eGc ~e2 dB | "G"dGB ~d2 cB | "G"AB GD "A"GAB "D"~A3z :|
P: B
|: "G"ABG ~B2 AG | "G"ABG ~d2 cB | "G"AB GD GAB "C"~c2 cG \
|  "G"ABG ~B2 AG | "G"ABG ~d2 cB | "G"AB GD "A"GAB "D"~A3 "fine"z :|
P: C
|: "A"^c_BG ~A2 AE |  A_BG ~A2 AE | "A"A_B ^cd "Gm"efd "A"~e2 eA \
|  "A"^c_BG ~A2 AE |  A_BG ~A2 AE | "Gm"d^c _BA G_BG "A"~A3z :|
P: D
|: "Gm"_bc'b ba ag | "Dm"a_ba gf ef | "A"gf ed "Gm"efd "A"~e2 eA \
|  "Gm"_bc'b ba ag | "Dm"a_ba gf ef | "A"gf ed "Gm"^c_BG "A"~A3z :|
